X: 42858
T: Wild Irishman, The
R: reel
M: 4/4
K: Dmajor
A|d2fd gefe|dfed cdec|d2fd gefd|fgfe dcBc|
d2fd gefe|dfed cdeg|~f3d ~g3e|cAcA ~d3||
|:f|edcB A3c|eA~A2 eAfA|edcB A2ce|fgfe d3:|

